shader_type spatial;
render_mode unshaded, cull_disabled;

uniform vec4 outline_color : source_color = vec4(1.0, 1.0, 1.0, 1.0);
uniform float outline_width = 1.0;

void vertex() {
	VERTEX += NORMAL * outline_width * 0.01;
}

void fragment() {
	ALBEDO = outline_color.rgb;
	ALPHA = outline_color.a;
}